X: 58
T:Mixolydian (so) Scales
L:1/4
M:10/4
K:EbMix
"^E flat"  E2 FG AB cd e2|e2 dc BA GF E2||
M:10/4
K:BbMix
"^B flat"  B2 cd ef ga b2|b2 ag fe dc B2||
M:10/4
K:FMix
"^F"       F2 GA Bc de f2|f2 ed cB AG F2||
M:10/4
K:CMix
"^C"       C2 DE FG AB c2|c2 BA GF ED C2||
M:10/4
K:GMix
"^G"       G2 AB cd ef g2|g2 fe dc BA G2||
M:10/4
K:DMix
"^D"       D2 EF GA Bc d2|d2 cB AG FE D2||
M:10/4
K:AMix2 
"^A"       A2 Bc de fg a2|a2 gf ed cB A2||
M:10/4
K:EMix
"^E"       E2 FG AB cd e2|e2 dc BA GF E2||
M:10/4
K:BMix
"^B"       B2 cd ef ga b2|b2 ag fe dc B2|]

On the chanter, it's the A-final mode, allowing tonal centres at both
ends of the range:

